assets/images/icons/search.svg

<svg width="30" height="30" viewBox="0 0 30 30" fill="none" xmlns="http://www.w3.org/2000/svg">
<path fill-rule="evenodd" clip-rule="evenodd" d="M12.5007 22.5C6.97788 22.5 2.50073 18.0228 2.50073 12.5C2.50073 6.97715 6.97788 2.5 12.5007 2.5C18.0236 2.5 22.5007 6.97715 22.5007 12.5C22.5007 14.8111 21.7167 16.9392 20.4001 18.6326L27.1337 25.3661L25.3659 27.1339L18.6322 20.4002C16.939 21.7163 14.8114 22.5 12.5007 22.5ZM20.0014 12.5C20.0014 16.6421 16.6435 20 12.5014 20C8.35925 20 5.00138 16.6421 5.00138 12.5C5.00138 8.35786 8.35925 4.99999 12.5014 4.99999C16.6435 4.99999 20.0014 8.35786 20.0014 12.5Z" fill="#543018"/>
</svg>

<svg width="30" height="30" fill="none" xmlns="http://www.w3.org/2000/svg"><path fill-rule="evenodd" clip-rule="evenodd" d="M12.5 22.5c-5.522 0-10-4.477-10-10s4.478-10 10-10c5.524 0 10 4.477 10 10 0 2.311-.783 4.44-2.1 6.133l6.734 6.733-1.768 1.768-6.734-6.734a9.956 9.956 0 01-6.131 2.1zm7.501-10a7.5 7.5 0 11-15 0 7.5 7.5 0 0115 0z" fill="#543018"/></svg>
